X:1
T:The Clumsy Lover
M:C|
L:1/8
Q:80
C:Neil Dickie
S:Hornpipe
K:HP
d | \
{g}c/2e/2{A}e/2f/2{g}e/2c/2{g}B/2{e}A/2 | \
{g}d/2f/2{e}f/2d/2a/2f/2{g}d/2f/2 | \
{g}c/2e/2{A}e/2f/2{g}e/2c/2{g}B/2{e}A/2 |
{gdedc}dB/2c/2{g}d/2e/2{g}c/2{d}B/2 | \
{g}c/2e/2{A}e/2f/2{g}e/2c/2{g}B/2{e}A/2 | \
{g}d/2f/2{e}f/2d/2g/2f/2{g}e/2d/2 |
{g}c/2e/2{A}e/2c/2{gdedc}dG/2{d}B/2 | \
{g}B/2{d}A/2{e}A/2B/2{gAGAG}A :| \
d |
{g}c/2e/2{A}e/2a/2{g}a/2e/2{g}c/2{d}A/2 | \
{g}d/2A/2{g}d/2f/2a/2f/2{g}d/2f/2 | \
{g}c/2e/2{A}e/2a/2{g}a/2e/2{g}c/2{d}A/2 |
{gdedc}dB/2c/2{g}d/2e/2{g}c/2{d}B/2|1
{g}c/2e/2{A}e/2a/2{g}a/2e/2{g}c/2{d}A/2 | \
{g}d/2A/2{g}d/2f/2a/2f/2{g}d/2f/2 |
{g}c/2e/2{A}e/2c/2{gdedc}dG/2{d}B/2 | \
{g}B/2{d}A/2{e}A/2B/2{gAGAG}A :| \
d |
{g}c/2e/2{A}e/2c/2e/2{A}e/2c/2e/2 | \
{g}d/2f/2{e}f/2d/2f/2{e}f/2d/2f/2 | \
{g}c/2e/2{A}e/2c/2e/2{A}e/2c/2e/2 |
{g}d/2B/2{G}B/2c/2{g}d/2e/2{g}c/2{d}B/2|1
{g}c/2e/2{A}e/2c/2e/2{A}e/2c/2e/2 | \
{g}d/2f/2{e}f/2d/2f/2{e}f/2d/2f/2 |
{g}c/2e/2{A}e/2c/2{gdedc}dG/2{d}B/2 | \
{g}B/2{d}A/2{e}A/2B/2{gAGAG}A :| \
d |
{g}c/2a/2{g}a/2e/2a/2e/2{g}c/2{d}A/2 | \
{g}d/2a/2{g}a/2d/2a/2A/2{g}d/2a/2 | \
{g}c/2a/2{g}a/2e/2a/2e/2{g}c/2{d}A/2 |
{gdedc}dB/2c/2{g}d/2e/2{g}c/2{d}B/2 | \
{g}c/2a/2{g}a/2e/2a/2e/2{g}c/2{d}A/2 | \
{g}d/2a/2{g}a/2d/2a/2A/2{g}d/2a/2 |
{g}c/2e/2{A}e/2c/2{gdedc}dG/2{d}B/2 | \
{g}B/2{d}A/2{e}A/2B/2{gAGAG}A :| \
d |
{g}c/2e/2{A}e/2A/2{eAfA}e{g}A/2e/2 | \
{g}d3/2f/2{a}g/2f/2{g}e/2d/2 | \
{g}c/2e/2{A}e/2A/2{eAfA}e{g}A/2e/2 |
{g}d/2B/2{G}B/2c/2{g}d/2e/2{g}c/2{d}B/2 | \
{g}c/2e/2{A}e/2A/2{eAfA}e{g}A/2e/2 | \
{g}d3/2f/2{a}g/2f/2{g}e/2d/2 |
{g}c/2e/2{A}e/2c/2{gdedc}dG/2{d}B/2 | \
{g}B/2{d}A/2{e}A/2B/2{gAGAG}A :| \
d |
{g}c/2a/2{g}a/2c/2a/2{g}a/2c/2a/2 | \
d/2a/2{g}a/2d/2a/2{g}a/2d/2a/2 | \
{g}c/2a/2{g}a/2c/2a/2{g}a/2c/2a/2 |
B/2a/2c/2a/2d/2a/2e/2a/2|1
{g}c/2a/2{g}a/2c/2a/2{g}a/2c/2a/2 | \
d/2a/2{g}a/2d/2a/2{g}a/2d/2a/2 |
{g}c/2e/2{A}e/2c/2{gdedc}dG/2{d}B/2 | \
{g}B/2{d}A/2{e}A/2B/2{gAGAG}A :|
